modules/feathericon/icons/money.svg

<?xml version="1.0" encoding="UTF-8"?>
<svg width="14px" height="8px" viewBox="0 0 14 8" version="1.1" xmlns="http://www.w3.org/2000/svg" xmlns:xlink="http://www.w3.org/1999/xlink">
    <!-- Generator: sketchtool 48.1 (47250) - http://www.bohemiancoding.com/sketch -->
    <title>money</title>
    <desc>Created with sketchtool.</desc>
    <defs></defs>
    <g id="web-app" stroke="none" stroke-width="1" fill="none" fill-rule="evenodd">
        <g id="money" fill="#000000">
            <path d="M3,7 C3,7 11,7 11,7 C11,5 13,5 13,5 L13,3 C13,3 11,3 11,1 L3,1 C3,3 1,3 1,3 L1,5 C1,5 3,5 3,7 Z M0,1 C0,1 0,0 1,0 L13,0 C14,0 14,1 14,1 L14,7 C14,7 14,8 13,8 L1,8 C0,8 0,7 0,7 L0,1 Z M8,6 C9.1045695,6 10,5.1045695 10,4 C10,2.8954305 9.1045695,2 8,2 C6.8954305,2 6,2.8954305 6,4 C6,5.1045695 6.8954305,6 8,6 Z M4,2 L5,2 L5,6 L4,6 L4,2 Z M8,5 C8.55228475,5 9,4.55228475 9,4 C9,3.44771525 8.55228475,3 8,3 C7.44771525,3 7,3.44771525 7,4 C7,4.55228475 7.44771525,5 8,5 Z" id="Shape"></path>
        </g>
    </g>
</svg>

<svg width="14" height="8" xmlns="http://www.w3.org/2000/svg"><path d="M3 7h8c0-2 2-2 2-2V3s-2 0-2-2H3c0 2-2 2-2 2v2s2 0 2 2zM0 1s0-1 1-1h12c1 0 1 1 1 1v6s0 1-1 1H1C0 8 0 7 0 7V1zm8 5a2 2 0 1 0 0-4 2 2 0 0 0 0 4zM4 2h1v4H4V2zm4 3a1 1 0 1 0 0-2 1 1 0 0 0 0 2z" fill="#000" fill-rule="evenodd"/></svg>
